X:16
T:La Rotta
R:misc
H:14th century Italian tune.
Z:id:hn-misc-16
M:2/4
L:1/8
K:Edor
B/c/ | dc/d/ Be | e/d/c/d/ BB/A/ | A/G/F/G/ E/F/G/E/ | F2 F
B/c/ | dc/d/ Be | e/d/c/d/ BB/A/ | A/G/G/F/ F/E/E/D/ | E3 :|
|: B | EE/D/ EE/F/ | GG/A/ BB/c/ |
dc/d/ BB/A/ |1 A/G/F/G/ E/F/G/E/ | F2 F :|2 A/G/G/F/ F/E/E/D/ | E3 ||

